X: 35653
T: Sailor On The Rock, The
R: reel
M: 4/4
K: Dmajor
|:de|fedB A2 FA|A2 FA BA A2|fedB A2FA|Beee e2 de|
fedB A2 FA|A2 FA BA A2|BcBA B2 g2|1 fgec d2:|2 fgec d4||
|:fgaf g2af|gfge dcBA|BcBA B2 g2|fgec dcBA|
fgaf g2af|gfge dcBA|BcBA B2 g2|fgec d4:|

